X: 165
T: No_97_The_Dwelling_Place_of_the_Sun.krn
N: Derived from No_97_The_Dwelling_Place_of_the_Sun.krn
%%abc-version 2.0
%%abcx-abcm2ps-target-version 5.9.1 (29 Sep 2008)
%%abc-creator hum2abc beta
%%abcx-conversion-date 2019/03/15 08:37:56
%%humdrum-veritas 669343468
%%humdrum-veritas-data 1107743105
%%linebreak <none>
%%barnumbers 0
L: 1/8
M: 2/4
K: Eb clef=bass
B,/ [I:setbarnb 1]| 
B,2F3/F/ | 
F2F z | 
G2E3/E/ | 
E2(3ECE | 
E3/C/ C3/C/ | 
C2z2 | 
CF FC ||  
[M:3/4]B,/B,/B, B,3/B,/ B,3//A,//A,/ z/ ||  
[M:2/4]CB,B,2 ||  
[M:3/4]B,B,/B,/ B,B,3//B,// (B,3//A,//)A,/ z/ | 
CB,B,2B,B,/A,/ ||  
[M:2/4]B,B,/B,/ B,A, | 
B,B, B,B, |]  



